X:49
T: Caoine na maighdine, S. 110
N: I0548
O: Irland
S: O'SULLIVAN, Donal: Song of the Irish]
R: religiöses Lied, Klagelied]
M: 2/4
L: 1/8
K: C
 | c2cc | G2GG | A2GE | F2G2 | A2E2 | F2GG | c2c2 | c3
G | c2cc | G2G2 | A2GE | F2G2 | A2E2 | F2GG | c2c2 | c4

